X:1
T:Pas de deux
T:Pas de deux
T:The Nutcracker, Piano Arrangement for 3 hands
T:Hinci
C:Hinci
%%score { 1 | 2 | 3 }
L:1/8
Q:1/4=59
M:4/4
K:G
V:1 treble nm="Piano" snm="Pno."
V:2 bass 
V:3 bass 
V:1
"^Andante maestoso."!mp! (3z/ ([D,G,]/[G,B,]/(3[B,D]/[DG]/[GB]/ (6:4:6[GBd]/[GB]/[DG]/[B,D]/[G,B,]/[D,G,]/) (3z/ ([E,G,]/[G,B,]/(3[B,E]/[EG]/[GB]/ (6:4:6[GBe]/[GB]/[EG]/[B,E]/[G,B,]/[E,G,]/) | %1
 (3z/ ([E,A,]/[A,C]/(3[CE]/[EA]/[Ac]/ (6:4:6[Ace]/[Ac]/[EA]/[CE]/[A,C]/[E,A,]/) (3z/ ([D,F,]/[F,A,]/(3[A,D]/[DF]/[FA]/ (6:4:6[FAd]/[FA]/[DF]/[A,D]/[F,A,]/[D,F,]/) | %2
 (3z/ ([D,G,]/[G,B,]/(3[B,D]/[DG]/[GB]/ (6:4:6[GBd]/[GB]/[DG]/[B,D]/[G,B,]/[D,G,]/) (3z/ ([E,G,]/[G,B,]/(3[B,E]/[EG]/[GB]/ (6:4:6[GBe]/[GB]/[EG]/[B,E]/[G,B,]/[E,G,]/) | %3
 (3z/ ([F,A,]/[A,C]/(3[CE]/[EA]/[Ac]/ (6:4:6[Ace]/[Ac]/[EA]/[CE]/[A,C]/[F,A,]/) (3z/ ([D,F,]/[F,A,]/(3[A,D]/[DF]/[FA]/ (6:4:6[FAd]/[FA]/[DF]/[A,D]/[F,A,]/[D,F,]/) | %4
 (3z/ ([D,G,]/[G,B,]/(3[B,D]/[DG]/[GB]/ (6:4:6[GBd]/[GB]/[DG]/[B,D]/[G,B,]/[D,G,]/) (3z/ ([D,F,]/[F,A,]/(3[A,D]/[DF]/[FA]/ (6:4:6[FAd]/[FA]/[DF]/[A,D]/[F,A,]/[D,F,]/) | %5
 (3z/ ([D,G,]/[G,B,]/(3[B,D]/[DG]/[GB]/ (6:4:6[GBd]/[GB]/[DG]/[B,D]/[G,B,]/[D,G,]/) (3z/ ([D,F,]/[F,A,]/(3[A,D]/[DF]/[FA]/ (6:4:6[FAd]/[FA]/[DF]/[A,D]/[F,A,]/[D,F,]/) | %6
 (3z/ ([D,G,]/[G,B,]/(3[B,D]/[DG]/[GB]/ (6:4:6[GBd]/[GB]/[DG]/[B,D]/[G,B,]/[D,G,]/) (3z/ ([E,G,]/[G,B,]/(3[B,E]/[EG]/[GB]/ (6:4:6[GBe]/[GB]/[EG]/[B,E]/[G,B,]/[E,G,]/) | %7
 (3z/ ([D,F,]/[F,A,]/(3[A,C]/[CE]/[EA]/ (6:4:6[FAe]/[FA]/[CF]/[CE]/[A,C]/[F,A,]/) (3z/ ([^D,F,]/[F,B,]/(3[B,^D]/[DF]/[FB]/ (6:4:6[FB^d]/[FB]/[DF]/[B,D]/[F,B,]/[D,F,]/) | %8
 (3z/ ([E,G,]/[G,B,]/(3[B,E]/[EG]/[GB]/ (6:4:6[GBe]/[GB]/[EG]/[B,E]/[G,B,]/[E,G,]/) (3z/ ([E,A,]/[A,C]/(3[CE]/[EA]/[Ac]/ (6:4:6[Ace]/[Ac]/[EA]/[CE]/[A,C]/[E,A,]/) | %9
 (3z/ ([E,G,]/[G,B,]/(3[B,E]/[EG]/[GB]/ (6:4:6[GBe]/[GB]/[EG]/[B,E]/[G,B,]/[E,G,]/) (3z/ ([E,A,]/[A,C]/(3[CE]/[EA]/[Ac]/ (6:4:6[Ace]/[Ac]/[EA]/[CE]/[A,C]/[E,A,]/) | %10
!<(! (3z/ ([E,G,]/[G,B,]/(3[B,E]/[EG]/[GB]/ (6:4:6[GBe]/[GB]/[EG]/[B,E]/[G,B,]/[E,G,]/) (3z/ ([E,G,]/[G,B,]/(3[B,E]/[EG]/[GB]/ (6:4:6[GBe]/[GB]/[EG]/[B,E]/[G,B,]/!<)!!mf![E,G,]/) | %11
 (3z/ ([E,G,]/[G,A,]/(3[A,E]/[EG]/[GA]/ (6:4:6[GAe]/[GA]/[EG]/[A,E]/[G,A,]/[E,G,]/)!>(! (3z/ ([E,G,]/[G,^C]/(3[CE]/[EG]/[G^c]/ (6:4:6[Gce]/[Gc]/[EG]/[CE]/[G,C]/!>)!!mp![E,G,]/) | %12
 (3z/ ([D,F,]/[F,A,]/(3[A,D]/[DF]/[FA]/ (6:4:6[FAd]/[FA]/[DF]/[A,D]/[F,A,]/[D,F,]/) (3z/ ([D,F,]/[F,A,]/(3[A,^D]/[DF]/[FA]/ (6:4:6[FA^d]/[FA]/[DF]/[A,D]/[F,A,]/[D,F,]/) | %13
!f! !>![gg']2 !>!!tenuto![ff']!>!!tenuto![ee'] (!>![dd']!>![cc']!>![Bb]!>![Aa] | !>![Gg]) z z2 z4 | %15
 !>!e2 !>!!tenuto!d!>!!tenuto!c (!>!B!>!A!>!G!>!F | %16
 !>![G,B,DG])!mp! z[K:bass] [B,,D,G,D] z [G,,B,,E,] z [E,G,B,E] z | %17
[K:treble]!mf! !>!g2 !>![Acf]!>![ce]!>(! (!>![FAd]!>![Ac]- [Ac])(!>!B/!>)!!>!A/) | %18
!mp! !>![B,DG]2- [B,DG] z z2 !>![Cc]!>![B,B] | !>![G,DG]>!>![A,FA] !>![G,DG] z z2 !>![Cc]!>![B,B] | %20
 !>![G,DG]>!>![A,FA] !>![G,DG]4!p! !////-!E e | %21
!mf!!>(! !>!e2 !>!d!>!c (!>!B!>!A- A)(!>!G/!>!F/)!>)! |!mp!"_dim." !>!E6 !>!A!>!G | %23
 !>!E>!>!F !>!E4 !>!A!>!G |!p! !>!E4- E z!mp![Q:1/4=72] (gf) | %25
[Q:1/4=72]"^Poco più mosso.\n" !tenuto!e2 !tenuto!b!tenuto!a (g3/2a/4g/4 !tenuto!f!tenuto!e) | %26
 (g2 f4) (ef) |!<(! (B3/2c/4B/4 !tenuto!^A!<)!!mf!!tenuto!B) (c2 dc) | %28
!>(! B4-!>)! B z[K:bass]!mf! (B,,A,,) | %29
 !tenuto!G,,2 !tenuto!D,!tenuto!C, (B,,3/2C,/4B,,/4 !tenuto!A,,!tenuto!G,,) | %30
 (B,,2 A,,4) (A,,B,,) |!<(! (E,,3/2F,,/4E,,/4!<)!!f! !tenuto!^D,,!tenuto!E,,) (G,,2 F,,E,,) | %32
!>(! B,,,4-!>)!!p! B,,, z[K:treble][Q:1/4=74] (!tenuto!^A[Q:1/4=76]!tenuto!B) | %33
[Q:1/4=78]"_accel." (c2 AG)!<(! (F2 Ac)!<)! |!>(! (e2!>)!!p! ^d4) (!tenuto!^A!tenuto!B) | %35
 (c2 AG)!<(! (F2 (3Ace)!<)! |!>(! ([Gg]2!>)! [Ff]4) (3(B^df) | %37
!<(! ([Aa]2 [Gg]4) (3([Cc][Ee]!<)!!mf![Gg]) | %38
"_cresc." (3:2:2(!>![Bb]2 [Aa]) (3([^D^d][Ff][Aa]) (3:2:2(!>![cc']2 [Bb]) (3([Ee][^G^g][Bb]) | %39
 (3:2:2(!>![dd']2 [cc']) (3([Ff][Aa][cc']) (3:2:2([ee']2 !>![^d^d']) (3([Ff][Bb][dd']) | %40
 (3:2:2(!>![ff']2 [ee'])!ff! !>![gg']4 [ff'][ee'] | %41
"^Ritenuto" [ee']2[Q:1/4=78] [dd'][cc'] [Bb][Aa]- [Aa][Q:1/4=76][Gg]/[Ff]/ | %42
 [cc']2 [Bb][Aa] [Gg][Q:1/4=74][Ff]- [Ff][Ee]/[^D^d]/ | %43
 !>![Aa]2 !>![Gg]!>![Ff] !>![Ee]!>![^D^d]!>![Cc]!>![B,B] | %44
[K:bass][Q:1/4=70] !>![A,,A,][Q:1/4=68]!>![G,,G,][Q:1/4=66]!>![F,,F,][Q:1/4=64]!>![E,,E,]- (3!>![E,,E,][Q:1/4=62]!>![^D,,^D,][Q:1/4=60]!>![=D,,=D,][Q:1/4=54] (3!>![^C,,^C,][Q:1/4=52]!>![=C,,=C,][Q:1/4=48]!>![B,,,B,,] | %45
[K:treble]"^Tempo I."[Q:1/4=62]!f! !tenuto![E,G,B,E]4 !////-![CEe]2 [E,G,]2 | %46
!ff! !>![gg']2 !>![ff']!>![ee'] !>![dd']!>![cc']- [cc']!>![Bb]/!>![Aa]/ | %47
 [Gg]2- [Gg] z z2 (e/4f/4g/4a/4(5:4:5b/4^c'/4^d'/4e'/4f'/4) | %48
 !>![gg']2 !>![ff']!>![ee'] !>![dd']!>![cc']- [cc']!>![Bb]/!>![Aa]/ | %49
 [Gg]2- [Gg] z !>!!tenuto!e2 (e/4f/4g/4a/4(5:4:5b/4^c'/4^d'/4e'/4f'/4) | %50
"^Poco stringendo.""_cresc." !>![gg']2 !>![ff']!>![ee'][Q:1/4=64] !>![gg']2 !>![ff']!>![ee'] | %51
[Q:1/4=66] (3!>![gg']!>![ff']!>![ee'][Q:1/4=68] (3!>![gg']!>![ff']!>![ee'][Q:1/4=70] (3!>![gg']!>![ff']!>![ee'][Q:1/4=72] (3!>![gg']!>![ff']!>![ee'] | %52
 (!>![gg']/!>![ff']/!>![ee']/!>![ff']/) (!>![gg']/!>![ff']/!>![ee']/!>![ff']/) (!>![gg']/!>![ff']/!>![ee']/!>![ff']/) (!>![gg']/!>![ff']/!>![ee']/!>![ff']/) | %53
 (!>![gg']/!>![ff']/!>![ee']/!>![ff']/) (6:4:6(!>![gg']/!>![ff']/!>![ee']/)(!>![ee']/!>![ff']/!>![gg']/)[Q:1/4=71] (6:4:6(!>![gg']/[Q:1/4=70]!>![ff']/[Q:1/4=69]!>![ee']/)[Q:1/4=68](!>![ee']/[Q:1/4=67]!>![ff']/[Q:1/4=66]!>![gg']/)[Q:1/4=65] (6:4:6(!>![gg']/[Q:1/4=64]!>![ff']/[Q:1/4=63]!>![ee']/)[Q:1/4=62](!>![ee']/[Q:1/4=61]!>![ff']/[Q:1/4=60]!>![gg']/) | %54
!fff! !>!g2 !>!f!>!e !>!d!>!c- c!>!B/!>!A/ | !>!G8 |!fff! !>!g2 !>!f!>!e !>!d!>!c- c!>!B/!>!A/ | %57
!f! [G,B,DG]2 z2 z2!mf! (ed) | (B>d c2) [Ff]2!f! (ba) | (f>a g2) z2 ([ee'][dd']) | %60
 ([Bb]>[dd'] [cc']2) [_e_e']2 ([bb'][aa']) | ([ff']>[aa'] [gg']2) [_e_e']2 ([bb'][aa']) | %62
 ([ff']>[aa'] [gg']2) [_e_e']2 ([bb'][aa']) | ([ff'] [aa']2 [gg']) ([^c^c'] [ee']2 [dd']) | %64
 ([^A^a] [cc']2 [Bb]) ([Ff] [=A=a]2 [Gg]) | %65
!ff! (6:4:6!fermata![cegc'][K:bass]!pp!G,[G,A,][G,B,][G,C][G,D]!<(! [^D,^D]/[^E,D^E]/[F,DF]/[G,DG]/[K:treble] [A,DA]/[B,DB]/[CDc]/[DGd]/!<)! | %66
!mp!!<(! (6:4:6[c_e]/[ce=f]/[ce^f]/[ceg]/[cega]/[cegb]/!<)!!mf!!<(! (6:4:6[egc']/[cgc'd']/[cgc'_e']/[c'e'=f']/[c'e'^f']/[c'e'g']/!<)!!ff! [ae'g'a']/4[be'g'b']/4[c'e'g'c'']/4[c'd'g'd'']/4!fermata![c'e'g'_e'']/[Q:1/4=52]!p!(3(g/4e/4c/4) (12:8:12(e/4g/4e/4c/4e/4g/4e/4c/4e/4g/4e/4c/4) | %67
!mp! Tg8({fg)} |!mf! Ta8({ga)} |!f! Tb8({^ab)} |!f! Td'8({^c'd')} |!ff! (Tg'8 | %72
 g'4) [gbd'g'] z z2 | [GBdg] z z2 [G,B,DG] z z2 |] %74
V:2
 !arpeggio![G,,D,G,B,D]/ z/ z [D,G,B,D]/ z/ z !arpeggio![B,,E,G,B,E]/ z/ z [E,G,B,E]/ z/ z | %1
 !arpeggio![C,E,A,CE]/ z/ z [E,A,CE]/ z/ z !arpeggio![A,,D,F,A,D]/ z/ z [D,F,A,D]/ z/ z | %2
 !arpeggio![G,,D,G,B,D]/ z/ z [D,G,B,D]/ z/ z !arpeggio![B,,E,G,B,E]/ z/ z [E,G,B,E]/ z/ z | %3
 !arpeggio![C,E,A,CE]/ z/ z [E,G,CE]/ z/ z !arpeggio![A,,D,F,A,]/ z/ z [D,F,A,D]/ z/ z | %4
 !arpeggio![G,,D,B,D]/ z/ z [D,G,B,D]/ z/ z !arpeggio![A,,D,F,A,D]/ z/ z [D,F,A,D]/ z/ z | %5
 !arpeggio![G,,D,B,D]/ z/ z [D,B,D]/ z/ z !arpeggio![A,,D,F,A,D]/ z/ z [D,F,A,D]/ z/ z | %6
 !arpeggio![G,,D,B,D]/ z/ z [D,B,D]/ z/ z !arpeggio![B,,E,G,B,E]/ z/ z [E,G,B,E]/ z/ z | %7
 !arpeggio![A,,E,A,C]/ z/ z [E,F,A,E]/ z/ z !arpeggio![B,,^D,F,^D]/ z/ z [D,F,B,D]/ z/ z | %8
 !arpeggio![B,,G,B,E]/ z/ z [E,G,B,E]/ z/ z !arpeggio![A,,C,E,A,C]/ z/ z [E,CE]/ z/ z | %9
 !arpeggio![B,,G,B,E]/ z/ z [G,B,E]/ z/ z !arpeggio![A,,C,E,A,C]/ z/ z [E,CE]/ z/ z | %10
 !arpeggio![B,,G,B,E]/ z/ z [G,B,E]/ z/ z !arpeggio![G,,B,,D,G,B,]/ z/ z [D,G,B,]/ z/ z | %11
 !arpeggio![A,,^C,E,G,A,]/ z/ z [C,E,A,^C]/ z/ z !arpeggio![A,,E,G,C]/ z/ z [E,G,CE]/ z/ z | %12
 !arpeggio![A,,D,F,A,]/ z/ z [D,F,A,D]/ z/ z !arpeggio![B,,^D,F,A,]/ z/ z [B,,D,F,B,]/ z/ z | %13
[K:bass] (3([C,E,]/[E,A,]/[A,C]/(3[CE]/[K:treble][EA]/[Ac]/ (6:4:6[Ace]/[Ac]/[EA]/[CE]/[A,C]/[E,A,]/)[K:bass] (3([A,,D,]/[D,A,]/[A,D]/(3[DF]/[K:treble][Fc]/[cd]/ (6:4:6[cdf]/[cd]/[Fc]/[DF]/[A,D]/[D,A,]/) | %14
 (3([E,G,]/[G,B,]/[B,E]/(3[EG]/[GB]/[Be]/ (6:4:6[Beg]/[Be]/[GB]/[EG]/[B,E]/[G,B,]/) (3([E,^G,]/[G,B,]/[B,E]/(3[E^G]/[GB]/[Be]/ (6:4:6[Be^g]/[Be]/[GB]/[EG]/[B,E]/[G,B,]/) | %15
 (3([C,E,]/[E,A,]/[A,C]/(3[CE]/[EA]/[Ac]/ (6:4:6[Ace]/[Ac]/[EA]/[CE]/[A,C]/[E,A,]/) (3([B,,D,]/[D,A,]/[A,C]/(3[CD]/[DF]/[FA]/ (6:4:6[FAd]/[Ac]/[FA]/[CD]/[A,C]/[D,A,]/) | %16
[K:bass] (6:4:35(1:1:2G,,/B,,/(1:1:3D,/G,/B,/[K:treble](1:1:3D/G/B/ (1:1:27(9:4:3d/B/G/[K:bass](9:4:3D/B,/G,/(9:4:3D,/B,,/G,,/ (9:4:18(1:1:3E,,/G,,/B,,/(1:1:3E,/G,/B,/[K:treble](1:1:3E/G/B/ (1:1:9(9:4:3e/B/G/[K:bass](9:4:3E/B,/G,/(9:4:3E,/B,,/G,,/ | %17
 (9:8:9C,,/4A,,/4C,/4E,/4A,/4C/4[K:treble]E/4A/4c/4 (9:8:9e/4c/4A/4[K:bass]E/4C/4A,/4E,/4C,/4A,,/4 (9:8:9D,,/4A,,/4D,/4F,/4A,/4D/4[K:treble]F/4A/4d/4 (9:8:9f/4d/4A/4[K:bass]F/4D/4A,/4F,/4D,/4A,,/4 | %18
 (9:8:9G,,/4B,,/4D,/4G,/4B,/4D/4[K:treble]G/4B/4d/4 (9:8:9g/4d/4B/4[K:bass]G/4D/4B,/4G,/4D,/4B,,/4 (9:8:9G,,/4A,,/4D,/4F,/4A,/4D/4[K:treble]F/4A/4d/4 (9:8:9f/4d/4A/4[K:bass]F/4D/4A,/4F,/4D,/4A,,/4 | %19
 (9:8:9G,,/4B,,/4D,/4G,/4B,/4D/4[K:treble]G/4B/4d/4 (9:8:9g/4d/4B/4[K:bass]G/4D/4B,/4G,/4D,/4B,,/4 (9:8:9G,,/4A,,/4D,/4F,/4A,/4D/4[K:treble]F/4A/4d/4 (9:8:9f/4d/4A/4[K:bass]F/4D/4A,/4F,/4D,/4A,,/4 | %20
 (9:8:9G,,/4B,,/4D,/4G,/4B,/4D/4[K:treble]G/4B/4d/4 (9:8:9g/4d/4B/4[K:bass]G/4D/4B,/4G,/4D,/4B,,/4 (9:8:9E,,/4B,,/4E,/4G,/4B,/4E/4[K:treble]G/4B/4e/4 (9:8:9g/4e/4B/4[K:bass]G/4E/4B,/4G,/4E,/4B,,/4 | %21
 (9:8:9A,,/4C,/4E,/4F,/4A,/4C/4[K:treble]E/4F/4A/4 (9:8:9f/4e/4A/4[K:bass]F/4E/4A,/4F,/4E,/4A,,/4 (9:8:9B,,/4^D,/4F,/4A,/4B,/4^D/4[K:treble]F/4A/4B/4 (9:8:9f/4^d/4B/4[K:bass]F/4D/4B,/4A,/4D,/4B,,/4 | %22
 (9:8:9E,,/4B,,/4E,/4G,/4B,/4E/4[K:treble]G/4B/4e/4 (9:8:9g/4e/4B/4[K:bass]G/4E/4B,/4G,/4E,/4B,,/4 (9:8:9E,,/4C,/4E,/4A,/4C/4E/4[K:treble]A/4c/4e/4 (9:8:9a/4e/4c/4[K:bass]A/4E/4C/4A,/4E,/4C,/4 | %23
 (9:8:9E,,/4B,,/4E,/4G,/4B,/4[K:treble]E/4G/4B/4e/4 (9:8:9g/4e/4B/4G/4E/4[K:bass]B,/4G,/4E,/4B,,/4 (9:8:9E,,/4C,/4E,/4A,/4C/4[K:treble]E/4A/4c/4e/4 (9:8:9a/4e/4c/4A/4E/4[K:bass]C/4A,/4E,/4C,/4 | %24
 (9:8:9E,,/4B,,/4E,/4G,/4B,/4[K:treble]E/4G/4B/4e/4 (9:8:9g/4e/4B/4G/4E/4[K:bass]B,/4G,/4E,/4B,,/4 (12:8:12E,,/4G,,/4B,,/4E,/4G,/4B,/4[K:treble]E/4G/4B/4e/4g/4b/4 (3e'!pp![EGB][EGB] | %25
 (6:4:6[EGB][EGB][EGB][EGB][EGB][EGB] (6:4:6[EGB][EGB][EGB][EGB][EGB][EGB] | %26
 (6:4:6[EAc][EAc][EAc][EAc][EAc][EAc] (6:4:6[CGA][CGA][CGA][CGA][CGA][CGA] | %27
 (6:4:6[B,^DF][B,DF][B,DF][B,DF][B,DF][B,DF] (6:4:6[A,EF][A,EF][A,EF][A,EF][A,EF][A,EF] | %28
 (6:4:6[B,^DF][B,DF][B,DF][B,DF][B,DF][B,DF]!<(! (6:4:6[A,EF][A,EF][A,EF][A,EF][A,EF][A,EF]!<)! | %29
!p! (6:4:6[B,DG][B,DG][B,DG][B,DG][B,DG][DG] (6:4:6[DG][DG][DG][B,D][B,D][B,D] | %30
 (6:4:6[F,B,^D][F,B,D][F,B,D][F,B,D][F,B,D][F,B,D] (6:4:6[F,B,D][F,B,D][F,B,D][F,B,D][F,B,D][F,B,D] | %31
 (6:4:6[G,B,E][G,B,E][G,B,E][G,B,][G,B,][G,B,] (6:4:6[E,B,][E,B,][E,B,][E,G,B,][E,G,B,][E,G,B,] | %32
 (6:4:6[^D,F,B,][D,F,B,][D,F,B,][D,F,B,][D,F,B,][D,F,B,]!>(! (6:4:6[F,F][F,F][F,F][F,^DF][F,DF]!>)!!pp![F,DF] | %33
[K:bass] (6:4:6[E,,A,,C,E,][E,,A,,C,E,][E,,A,,C,E,][E,,A,,C,E,][E,,A,,C,E,][E,,A,,C,E,] (6:4:6[E,,A,,C,E,][E,,A,,C,E,][E,,A,,C,E,][E,,A,,C,E,][E,,A,,C,E,][E,,A,,C,E,] | %34
 (6:4:6[F,,A,,B,,F,][F,,A,,B,,F,][F,,A,,B,,F,][F,,A,,B,,F,][F,,A,,B,,F,][F,,A,,B,,F,] (6:4:6[F,,A,,B,,F,][F,,A,,B,,F,][F,,A,,B,,F,]!<(![F,,^D,F,][F,,D,F,][F,,D,F,]!<)! | %35
!p! (6:4:6[E,,A,,C,E,][E,,A,,C,E,][E,,A,,C,E,][E,,A,,C,E,][E,,A,,C,E,][E,,A,,C,E,] (6:4:6[E,,A,,C,E,][E,,A,,C,E,][E,,A,,C,E,][A,,C,E,A,][A,,C,E,A,][A,,C,E,A,] | %36
 (6:4:6[B,,^D,A,B,][B,,D,A,B,][B,,D,A,B,][B,,D,A,B,][B,,D,A,B,][B,,D,A,B,]!<(! (6:4:6[B,,D,A,B,][B,,D,A,B,][B,,D,A,B,][B,,D,A,B,][B,,D,A,B,][B,,D,A,B,]!<)! | %37
!p! (6:4:6[B,,E,B,][B,,E,B,][B,,E,B,][B,,E,B,][B,,E,B,][B,,E,B,] (6:4:6[C,E,B,C][C,E,B,C][C,E,B,C][C,E,B,C][C,E,B,C]"_cresc."[C,E,B,C] | %38
 (6:4:6[^C,E,^C][C,E,C][C,E,C][^D,F,^D][D,F,D][D,F,D] (6:4:6[E,G,E][E,G,E][E,G,E][E,^G,E][E,G,E][E,G,E] | %39
 (6:4:6[E,A,E][E,A,E][E,A,E][E,A,E][E,A,E][E,A,E] (6:4:6[F,A,F][F,A,F][F,A,F][F,A,F][F,A,F][F,A,F] | %40
!f! (6:4:6[G,B,G][G,B,G][G,B,G][G,B,G][G,B,G][G,B,G]!>(! (6:4:6[G,B,G][G,B,G][G,B,G][G,B,G][G,B,G][G,B,G]!>)! | %41
!mf! (6:4:6[C,E,A,C][C,E,A,C][C,E,A,C][C,E,A,][C,E,A,][C,E,A,] (6:4:6[E,,C,E,][E,,C,E,][E,,C,E,][A,,E,A,][A,,E,A,][A,,E,A,] | %42
 (6:4:6[C,E,A,C][C,E,A,C][C,E,A,C][A,,C,E,A,][A,,C,E,A,][A,,C,E,A,] (6:4:6[E,,C,E,][E,,C,E,][E,,C,E,][A,,E,A,][A,,E,A,][A,,E,A,] | %43
 (6:4:6[E,,A,,C,E,][E,,A,,C,E,][E,,A,,C,E,][E,,A,,C,E,][E,,A,,C,E,][E,,A,,C,E,]!ff! !>!E,!>!^D,!>!C,!>!B,, | %44
 z8 |!mf! !////-![G,,B,,]2 E,,2!f! !////-![G,,C,]2 C,,2 | !////-![CE]2 A,2 !////-![A,D]2 [D,F,]2 | %47
 !////-![B,D]2 G,2 !////-![B,E] [E,G,] (E/4F/4G/4A/4(5:4:5B/4^c/4^d/4e/4f/4) | %48
 !////-![CE]2 A,2 !////-![A,D]2 [D,F,]2 | %49
 !////-![B,D]2 G,2 !////-![B,E] [E,G,] (E/4F/4G/4A/4(5:4:5B/4^c/4^d/4e/4f/4) | %50
 !////-![CE]2 A,2 !////-![CE]2 [G,_B,]2 | !////-![B,E]2 G,2 !////-![CE]2 [G,_B,]2 | %52
 !////-![^CE] [G,A,] !////-![CF] [F,_B,] !////-!G2 [G,=B,]2 | %53
!ff! !>!^D,,!>!E,,!>!G,,!>!B,, !>![E,,E,]!>![G,,G,]!>![B,,B,]!>![E,E] | %54
!f! !////-![C,E,A,]2 [E,,A,,]2 !////-![A,,D,F,]2 [D,,F,,]2 | %55
 !////-![G,,B,,D,]2 [B,,,D,,]2 !////-![G,,B,,E,]2 [B,,,E,,]2 | %56
!f! !////-![C,E,A,]2 [E,,A,,]2 !////-![A,,D,F,]2 [D,,F,,]2 | %57
 [D,,G,,B,,D,] z!mp! (9:8:9(G,,/4B,,/4D,/4G,/4B,/4D/4[K:treble]G/4B/4d/4) z4 | %58
[K:bass] z2 (10:8:10(G,,/4B,,/4D,/4G,/4C/4E/4[K:treble]G/4c/4e/4g/4 c') z z2 | %59
 z2[K:bass] (9:8:9(G,/4B,/4D/4[K:treble]G/4B/4d/4g/4b/4d'/4 g') z z2 | %60
 z2[K:bass] (10:8:10(G,/4C/4E/4[K:treble]G/4c/4e/4g/4c'/4e'/4g'/4 c'') z z2 | %61
 z2 (10:8:10(G,/4B,/4D/4G/4B/4d/4g/4b/4d'/4g'/4) z4 | %62
 z2 (10:8:10(G,/4B,/4D/4G/4B/4d/4g/4b/4d'/4g'/4) z4 | %63
[K:bass] (6:4:6(D,/B,/D/[K:treble]B/d/b/)[K:bass] (6:4:6(D,/B,/D/[K:treble]B/d/b/)[K:bass] (6:4:6(G,/B,/G/[K:treble]B/g/b/)[K:bass] (6:4:6(G,/B,/G/[K:treble]B/g/b/) | %64
[K:bass] (6:4:6(D,/G,/D/[K:treble]G/d/g/)[K:bass] (6:4:6(D,/G,/D/[K:treble]G/d/g/)[K:bass] (6:4:6(B,,/D,/B,/[K:treble]D/B/d/)[K:bass] (6:4:6(B,,/D,/B,/[K:treble]D/B/d/) | %65
 (6:4:6[G,C_EG][K:bass][G,,C,_E,][G,,C,E,][G,,C,E,][G,,C,E,][G,,C,E,] [G,,C,E,]/[G,,C,E,]/[G,,C,E,]/[G,,C,E,]/ [G,,C,E,G,]/[G,,C,E,G,]/[G,,C,E,G,]/[G,,C,D,G,]/ | %66
 (6:4:6[C,_E,C]/[C,E,=F,C]/[C,E,^F,C]/[C,E,G,C]/[C,E,A,C]/[C,E,B,C]/[K:treble] (6:4:6[C_Ec]/[CDGc]/[CEGc]/[CE=Fc]/[CE^Fc]/[CEGc]/ [G,CEG]/4[G,CEG]/4[G,CEG]/4[G,CDG]/4!fermata![G,CEG]/(3(C/4E/4G/4) (12:8:12(E/4C/4E/4G/4E/4C/4E/4G/4E/4C/4E/4G/4) | %67
 (12:8:12(_E/4G/4E/4C/4E/4G/4E/4C/4E/4G/4E/4C/4) (12:8:12(E/4G/4E/4C/4E/4G/4E/4C/4E/4G/4E/4C/4) (12:8:12(E/4G/4E/4C/4E/4G/4E/4C/4E/4G/4E/4C/4) (12:8:12(E/4G/4E/4C/4E/4G/4E/4C/4E/4G/4E/4C/4) | %68
 (12:8:12(_E/4G/4E/4C/4E/4G/4E/4C/4E/4G/4E/4C/4) (12:8:12(E/4G/4E/4C/4E/4G/4E/4C/4E/4G/4E/4C/4) (12:8:12(E/4G/4E/4C/4E/4G/4E/4C/4E/4G/4E/4C/4) (12:8:12(E/4G/4E/4C/4E/4G/4E/4C/4E/4G/4E/4C/4) | %69
!f! !////-![dg]4 [GB]4 |!f! !////-![gb]4 [GBd]4 |!ff! (!////-![bd']4 ([Bdg]4 | %72
 [Bdgbd']4)) [DGBd] z z2 | [G,B,D] z z2[K:bass] [G,,B,,D,] z z2 |] %74
V:3
 z8 | z8 | z8 | !>!G2 !>!F!>!E !>!D!>!C- C!>!B,/!>!A,/ | !>!G,4 z2 (!>!C!>!B,) | %5
 (!>!G,>!>!A, !>!G,2) z2 (!>!C!>!B,) | (!>!G,>!>!A, !>!G,4) z2 | %7
 !>!E2 !>!!tenuto!D!>!!tenuto!C !>!B,!>!A,- A,!>!G,/!>!F,/ | !>!E,4 z2 (!>!A,!>!G,) | %9
 (!>!E,>!>!F, !>!E,2) z2 (!>!A,!>!G,) | (!>!E,>!>!F, !>!E,4-) E,/!>!G,/(3!>!B,/!>!E/!>!G/ | %11
[K:treble] !>!B2 !>!A!>!G !>!F!>!E- E!>!D/!>!^C/ | %12
 (!>!D2- D!>!E/4!>!D/4!>!^C/4!>!D/4) (!>!^D2- D!>!E/4!>!D/4!>!^^C/4!>!D/4) | %13
 (!>!E2- E!>!F/4!>!E/4!>!^D/4!>!E/4) (!>!F2- F!>!G/4!>!F/4!>!E/4!>!F/4) | %14
 (!>!G2- G!>!A/4!>!G/4!>!F/4!>!G/4) (!>!^G2- G!>!A/4!>!G/4!>!^^F/4!>!G/4) | %15
 (!>!A2- A!>!B/4!>!A/4!>!^G/4!>!A/4) (!>!d2- d!>!e/4!>!d/4!>!^c/4!>!d/4) | !>![GBd]4 !>![EGBe]4 | %17
!mf! !>![CEAe]4!>(! !>![DFAd]4!>)! |!mp! !>![DGBd]4 !>![DFAd]4 | !>![DGBd]4 !>![DFAd]4 | %20
 !>![DGBd]4 !>![EGBe]4 | !>![EAce]4 !>![^DFB^d]4 | !>![B,EGB]4 !>![A,EAc]4 | %23
 !>![B,EGB]4 !>![A,EAc]4 | !>![B,EGB]4 z4 | %25
 z2!pp! (10:8:10(B,/4^C/4^D/4E/4F/4G/4A/4B/4^c/4^d/4 e) z (10:8:10(B/4c/4d/4e/4f/4g/4a/4b/4^c'/4^d'/4 | %26
 e') z[K:bass]!p! (10:8:10(E,,/4A,,/4C,/4E,/4A,/4C/4E/4[K:treble]A/4c/4e/4 a) z z2 | %27
 z2[K:bass] (10:8:10(B,,/4^C,/4^D,/4E,/4F,/4G,/4A,/4B,/4^C/4^D/4 E) z z2 | %28
 z2[K:bass]!mp! (9:8:9(B,,/4^D,/4F,/4B,/4^D/4[K:treble]F/4B/4^d/4f/4 b) z z2 | %29
 z2!p! (10:8:10(D/4E/4F/4G/4A/4B/4c/4d/4e/4f/4 g) z (10:8:10(G/4A/4B/4c/4d/4e/4f/4g/4a/4^a/4 | %30
 b) z!mp! (10:8:10(F,/4B,/4^D/4F/4B/4^d/4f/4b/4^d'/4f'/4 b') z z2 | %31
 z2!p! (10:8:10(B,/4^C/4^D/4E/4F/4G/4A/4B/4^c/4^d/4 e) z (11:8:11(=C/4=D/4E/4F/4G/4A/4_B/4=c/4=d/4e/4=f/4 | %32
 f) z[K:bass]!mp! (14:8:14(B,,,/4F,,/4B,,/4^D,/4F,/4B,/4^D/4[K:treble]F/4B/4^d/4f/4b/4^d'/4f'/4 b') z z2 | %33
 z8 | %34
 z2!pp! (6:4:6([^D,B,]/[F,^D]/[B,F]/[DB]/[F^d]/[Bf]/ (6:4:6[db]/[Bf]/[Fd]/[DB]/[B,F]/[F,D]/) z2 | %35
 z8 | %36
 z2!p! (6:4:6([^D,B,^D]/[F,DF]/[B,FB]/[DB^d]/[Fdf]/[Bfb]/ (6:4:6[db^d']/[Bfb]/[Fdf]/[DBd]/[B,FB]/[F,DF]/) z2 | %37
 z2!p! (6:4:6([B,,G,B,]/[E,B,E]/[G,EG]/[B,GB]/[EBe]/[Geg]/ (6:4:6!>![cgc']/[Geg]/[EBe]/[B,GB]/[G,EG]/[E,B,E]/) z2 | %38
 z8 | z8 | z2!f! !//![Ee]4 !/![Ee]!ff!(3!>![Ee]/!>![Ee]/!>![Ee]/ | !///-!e3 E3 !///-!c C | %42
 !///-!A3 A,3 !///-!F F, |!>(! !//-!E/E,/!>)! !///-!^D ^D, z z4 | z8 | z8 | %46
[K:bass]!f! !////-![C,E,]2 A,,2 !////-![F,,A,,]2 D,,2 | %47
 !////-![B,,D,]2 G,,2 !////-![G,,B,,]2 E,,2 | !////-![C,E,]2 A,,2 !////-![F,,A,,]2 D,,2 | %49
 !////-![B,,D,]2 G,,2 !////-![G,,B,,]2 E,,2 | !////-![C,E,]2 A,,2 !////-![C,E,]2 [G,,_B,,]2 | %51
 !////-![B,,E,]2 G,,2 !////-![C,E,]2 [G,,_B,,]2 | %52
 !////-![^C,E,] [G,,A,,] !////-![C,G,] [G,,_B,,] !////-!=B,,2 [D,,G,,]2 |[K:treble] z8 | %54
!mf!!8va(! (7:4:7(a''/4g''/4f''/4e''/4d''/4c''/4b'/4a') (7:4:7(a'/4b'/4c''/4d''/4e''/4f''/4g''/4a'') (7:4:7(a''/4g''/4f''/4e''/4d''/4c''/4b'/4a') (7:4:7(a'/4b'/4c''/4d''/4e''/4f''/4g''/4a'') | %55
!f! (7:4:7(g''/4f''/4e''/4d''/4c''/4b'/4a'/4g') (7:4:7(g'/4a'/4b'/4c''/4d''/4e''/4f''/4g'') (7:4:7(g''/4f''/4e''/4d''/4c''/4b'/4a'/4g') (7:4:7(g'/4a'/4b'/4c''/4d''/4e''/4f''/4g'')!8va)! | %56
!mf!!8va(! (7:4:7(a''/4g''/4f''/4e''/4d''/4c''/4b'/4a') (7:4:7(a'/4b'/4c''/4d''/4e''/4f''/4g''/4a'') (7:4:7(a''/4g''/4f''/4e''/4d''/4c''/4b'/4a') (7:4:7(a'/4b'/4c''/4d''/4e''/4f''/4g''/4a'')!8va)! | %57
!mf! !////-![DG]2 [G,B,]2!mp! !////-![DG]2 [=F,B,]2 | %58
 !////-!D2 [E,G,]2[K:bass] !////-![C_E]2 [_E,G,]2 | %59
 !////-![B,D]2 [D,G,]2 !////-![^EG]2 [^E,G,B,]2 | %60
 !////-![EG]2 [E,G,]2[K:treble] !////-![Fc]2 [C^D]2 | !////-![GB]2 [B,D]2 !////-![Fc]2 [C^D]2 | %62
 !////-![GB]2 [B,D]2 !////-![Fc]2 [C^D]2 | !////-![GB]2 [B,D]2 !////-![GB]2 [G,B,]2 | %64
 !////-![DG]2 G,2 !////-![DG]2 [D,G,B,]2 |[K:bass] [C,_E,] z z2 z4 | z8 | %67
[K:treble]!mf! !////-!_e4 c4 | !////-![_eg]4 c4 | %69
[K:bass] z2!mp! .[G,,G,] z .[D,,D,] z .[B,,,B,,] z | %70
 .[G,,,G,,] z .[G,,G,] z .[D,,D,] z .[B,,,B,,] z | %71
 .[G,,,G,,] z .[G,,G,] z .[D,,D,] z .[B,,,B,,] z | !////-!G,,,4 G,,4 | !////-!G,,,2 G,,2 z4 |] %74

